X: 10026
T: Diamond
R: waltz
M: 3/4
K: Cmajor
GF|E2 c3 E|F3 G {A}GF|EG cd ef|g3 e dc|A3 B cA|G2 c3 E|F2 D2 D>E|F3 D GF|
E2 c3 E|F3 G {A}GF|EG cd ef|g2 e3c|A3 B c2|G2 c2 (3DEF|E2 C3 C|1 C4:|2 C3 D EF||
|:G2 g3 a|g3 f e/f/g|a2 d3 d|d3 a gf|ef ga ge|fe d3 c|B2 G3 A|G3 F EF|
[1 G2 g3 a|g3 f e/f/g|a2 d3 d|d3 e ed|c3 B BG|F3 D EF|G2 c3 B|c3 G EF|
|:|2 GC E/F/G cd|ef ga g/f/e|af d2 de|d3 e ed|c3 B BG|F3 D EF|G2 c3 B|c4||

